img/e-crown.svg

<svg width="173" height="115" viewBox="0 0 173 115" fill="none" xmlns="http://www.w3.org/2000/svg">
<path d="M158.331 0.92585C160.241 0.125715 163.32 -0.604719 166.601 0.758857L166.919 0.897529L167.167 1.01569C169.693 2.2646 170.869 4.37607 171.365 5.66315C171.869 6.9682 171.985 8.16438 172.02 8.88581C172.091 10.3639 171.893 11.8714 171.688 13.0714C171.255 15.5987 170.413 18.8061 169.397 22.2686C167.341 29.2781 164.211 38.5199 160.985 47.9747C157.73 57.5176 154.356 67.3393 151.708 75.7696C148.96 84.518 147.321 90.7937 147.08 93.6915C146.714 98.0946 142.847 101.368 138.444 101.002C134.041 100.636 130.769 96.7693 131.135 92.3663C131.551 87.3627 133.822 79.3194 136.443 70.9747C139.164 62.3115 142.616 52.2651 145.842 42.8087C146.376 41.2428 146.901 39.6934 147.418 38.17C145.22 41.5256 142.959 45.0468 140.679 48.6133C134.638 58.0595 128.438 67.8557 123.297 74.9063C120.767 78.3754 118.189 81.6104 115.787 83.8546C114.64 84.9262 113.021 86.2665 111.048 87.1085C108.976 87.9925 105.034 88.844 101.386 86.1173C98.9046 84.2629 97.1002 81.2668 95.916 79.1124C94.5238 76.5793 93.1007 73.483 91.7041 70.1573C89.2182 64.2378 86.6137 57.0999 84.1904 50.0704C83.8628 53.5 83.5371 57.1473 83.2246 60.9932C83.1344 62.1033 82.241 70.6941 80.7549 78.1944C80.0566 81.7187 79.0541 85.9598 77.5742 88.9405C77.173 89.7487 76.588 90.7757 75.752 91.752C74.9685 92.6668 73.4488 94.1414 71.0606 94.8096C68.2931 95.584 65.6674 94.9224 63.7256 93.6544C62.0548 92.5633 61.028 91.139 60.4375 90.1739C50.958 74.679 37.8281 58.7811 24.4326 46.3741C23.8412 45.8263 22.9634 44.8111 22.4463 44.2208C21.713 43.3837 20.8069 42.3419 19.752 41.1534C18.8459 40.1326 17.856 39.0344 16.8291 37.9239C18.6904 60.2945 22.9445 82.3237 28.5059 104.487C29.5812 108.773 26.9788 113.118 22.6934 114.193C18.408 115.269 14.0626 112.666 12.9873 108.381C6.13974 81.0912 1.08701 53.4743 0.0117268 24.9063C-0.0542033 23.1547 0.00534344 18.3383 4.23438 15.4356C8.51801 12.4955 12.9906 14.3003 14.2988 14.8868C17.6738 16.4 21.2029 19.5972 23.7774 22.1055C26.649 24.9035 29.5248 28.0617 31.7178 30.5323C32.8185 31.7724 33.7841 32.8808 34.4815 33.6768C35.1672 34.4596 35.4006 34.7125 35.3897 34.711L35.3057 34.6348C46.2465 44.7683 56.978 57.0055 66.0049 69.6446C66.2492 68.0617 66.4658 66.5223 66.6475 65.129C66.8406 63.6478 66.9926 62.3563 67.1006 61.3868C67.1546 60.9021 67.197 60.5016 67.2275 60.2022C67.2428 60.0528 67.255 59.932 67.2637 59.8409C67.268 59.7956 67.2711 59.7597 67.2734 59.7335C67.2756 59.7099 67.2763 59.6984 67.2764 59.6973C68.3472 46.5188 69.5535 35.5485 70.6221 27.5362C71.1556 23.536 71.6613 20.2281 72.1055 17.7286C72.4773 15.6362 72.9535 13.1716 73.5996 11.6153C73.9284 10.8235 74.9011 8.83733 77.2803 7.59089C80.0512 6.13942 82.7324 6.684 84.2881 7.38581C85.6365 7.99415 86.472 8.82448 86.7891 9.15632C87.1813 9.56677 87.4499 9.93655 87.5957 10.1475C88.0752 10.8416 88.3497 11.4872 88.3779 11.5508C88.5466 11.9314 88.6873 12.3168 88.7666 12.5382C88.9549 13.0635 89.191 13.7749 89.4502 14.5723C89.9777 16.1952 90.7212 18.5501 91.6045 21.336C93.3848 26.9509 95.792 34.5026 98.4199 42.2364C101.058 49.9985 103.871 57.8059 106.456 63.962C107.111 65.5226 107.736 66.9377 108.323 68.1925C108.95 67.3892 109.634 66.4865 110.369 65.4786C115.146 58.9282 121.013 49.6657 127.198 39.9932C133.268 30.5012 139.643 20.6167 145.156 13.3839C147.877 9.81451 150.682 6.4949 153.368 4.15729C154.691 3.00627 156.372 1.74635 158.331 0.92585Z" fill="#DB2D13"/>
</svg>

<svg xmlns="http://www.w3.org/2000/svg" width="173" height="115" fill="none"><path fill="#DB2D13" d="M158.331.926c1.91-.8 4.989-1.53 8.27-.167l.318.139.248.118c2.526 1.249 3.702 3.36 4.198 4.647.504 1.305.62 2.501.655 3.223.071 1.478-.127 2.985-.332 4.185-.433 2.528-1.275 5.735-2.291 9.198-2.056 7.01-5.186 16.25-8.412 25.706-3.255 9.543-6.629 19.364-9.277 27.795-2.748 8.748-4.387 15.024-4.628 17.922a8 8 0 1 1-15.945-1.325c.416-5.004 2.687-13.048 5.308-21.392 2.721-8.663 6.173-18.71 9.399-28.166.534-1.566 1.059-3.116 1.576-4.639a1133 1133 0 0 0-6.739 10.443c-6.041 9.447-12.241 19.243-17.382 26.293-2.53 3.47-5.108 6.704-7.51 8.949-1.147 1.071-2.766 2.411-4.739 3.254-2.072.884-6.014 1.735-9.662-.992-2.481-1.854-4.286-4.85-5.47-7.005-1.392-2.533-2.815-5.629-4.212-8.955-2.486-5.92-5.09-13.057-7.514-20.087-.327 3.43-.653 7.077-.965 10.923-.09 1.11-.984 9.701-2.47 17.201-.698 3.525-1.7 7.766-3.18 10.746-.402.809-.987 1.836-1.823 2.812-.783.915-2.303 2.39-4.691 3.058-2.768.774-5.394.112-7.335-1.156-1.671-1.09-2.698-2.515-3.288-3.48-9.48-15.495-22.61-31.393-36.005-43.8-.592-.548-1.47-1.563-1.987-2.153-.733-.837-1.64-1.88-2.694-3.068a215 215 0 0 0-2.923-3.23c1.861 22.371 6.116 44.4 11.677 66.564a8 8 0 0 1-5.813 9.706 8 8 0 0 1-9.706-5.812C6.14 81.091 1.087 53.474.012 24.906c-.066-1.751-.007-6.568 4.222-9.47 4.284-2.94 8.757-1.136 10.065-.55 3.375 1.514 6.904 4.711 9.478 7.22 2.872 2.797 5.748 5.956 7.94 8.426 1.102 1.24 2.067 2.349 2.764 3.145.686.783.92 1.035.909 1.034l-.084-.076c10.94 10.133 21.672 22.37 30.699 35.01a197 197 0 0 0 1.259-9.804l.01-.108.002-.036c1.071-13.178 2.278-24.149 3.346-32.16.534-4.001 1.04-7.309 1.484-9.808.371-2.093.848-4.557 1.494-6.114a8 8 0 0 1 3.68-4.024c2.771-1.452 5.452-.907 7.008-.205a8 8 0 0 1 3.308 2.762c.48.694.754 1.34.782 1.403.169.38.31.766.389.987.188.525.424 1.237.683 2.034.528 1.623 1.271 3.978 2.154 6.764 1.78 5.615 4.188 13.167 6.816 20.9 2.638 7.763 5.451 15.57 8.036 21.726.655 1.56 1.28 2.976 1.867 4.23a104 104 0 0 0 2.046-2.713c4.777-6.55 10.644-15.813 16.829-25.486 6.07-9.492 12.445-19.376 17.958-26.61 2.721-3.568 5.526-6.888 8.212-9.226 1.323-1.15 3.004-2.41 4.963-3.231"/></svg>
